X:173
T:Haunted House, The
T:Maguire's
R:jig
C:Vincent Broderick (1920-2008)
S:Marcas O Murchu
H:Also played in A, #347
Z:id:hn-jig-173
M:6/8
K:G
G2G AGA|BGE EDE|GBd egd|egd edB|G2G AGA|BGE EDE|GBd ege|dBA G2D:|
|:GBd egd|egd edB|GBc ded|ded dBA|1 GBd egd|egd edB|
GBd ege|dBA G2D:|2 G2G AGA|BGE EDE|GBd ege|dBA G2D||

